#------------------------------------------------------#
# Challenge 4 : Write some more!
# Use your new skills to write a song.
#------------------------------------------------------#

# Use play + sleep to make your own song below:

play 80
sleep 1


#You finish it off!...






#************************************#
#      Now press the run button      #
#************************************#
